X: 10454
T: FRA TANTE ANGOSCIE
C: Caroffa.
Q: "Andante. Second time 8va."
%R: air, march
B: W. Hamilton "Universal Tune-Book" Vol. 1 Glasgow 1844 p.45 #4
S: http://imslp.org/wiki/Hamilton's_Universal_Tune-Book_(Various)
Z: 2016 John Chambers <jc:trillian.mit.edu>
M: 2/4
L: 1/8
K: Eb
% - - - - - - - - - - - - - - - - - - - - - - - - -
|:\
g2fe | dcB2 | e2fg | (g>af)z |\
a2(gf) | e2(dc) | B2(cd) |[1 (f>ge)z :|[2 (f2e)z H|]\
f2(=ef) | (a=e)f2 | g2(eg) | (f2b)z |\
f2(=ef) | (a=e)f2 | g2(eg) | f2(b"_D.C."a) |]
% - - - - - - - - - - - - - - - - - - - - - - - - -

%%sep 1 1 500
%%sep 1 1 500

